img/icons/footer_whatsapp.svg

<svg width="20" height="20" viewBox="0 0 20 20" fill="none" xmlns="http://www.w3.org/2000/svg">
<g clip-path="url(#clip0_256_53)">
<path d="M5.28564 17.1283L5.61259 17.2899C6.9751 18.0977 8.50095 18.4748 10.0269 18.4748C14.8226 18.4748 18.7463 14.5968 18.7463 9.85702C18.7463 7.59489 17.8199 5.38657 16.185 3.77071C14.5501 2.15486 12.3702 1.23926 10.0269 1.23926C5.23119 1.23926 1.30736 5.11725 1.36189 9.91092C1.36189 11.5267 1.85236 13.0887 2.66978 14.4352L2.88775 14.7584L2.01588 17.9362L5.28564 17.1283Z" fill="#1A5AA5"/>
<path d="M17.112 2.90898C15.2591 1.02388 12.6977 0.000487726 10.0819 0.000487841C4.52328 0.000488084 0.0545314 4.47094 0.108985 9.91089C0.108985 11.6345 0.599454 13.3042 1.41695 14.8123L8.71106e-07 19.9291L5.28617 18.5825C6.75758 19.3905 8.39242 19.7675 10.0274 19.7675C15.5316 19.7675 20.0003 15.297 20.0003 9.85715C20.0003 7.2179 18.9648 4.74026 17.112 2.90898L17.112 2.90898ZM10.0819 18.0979C8.61047 18.0979 7.13906 17.7209 5.88563 16.9668L5.55867 16.8052L2.39789 17.6131L3.21531 14.5431L2.99734 14.2199C0.599454 10.3958 1.74391 5.33272 5.66766 2.9628C9.5914 0.59295 14.6596 1.72406 17.0575 5.60205C19.4553 9.48003 18.3109 14.4891 14.3872 16.8591C13.1337 17.6669 11.6078 18.0978 10.0819 18.0978L10.0819 18.0979ZM14.8776 12.1194L14.2781 11.85C14.2781 11.85 13.4062 11.473 12.8612 11.2037C12.8067 11.2037 12.7523 11.1498 12.6977 11.1498C12.5342 11.1498 12.4252 11.2037 12.3162 11.2576C12.3162 11.2576 12.2618 11.3114 11.4988 12.1732C11.4443 12.2809 11.3353 12.3348 11.2263 12.3348L11.1718 12.3348C11.1173 12.3348 11.0084 12.2809 10.9538 12.2271L10.6813 12.1194C10.0819 11.85 9.53695 11.5268 9.10094 11.096C8.99195 10.9883 8.82844 10.8805 8.71945 10.7728C8.33797 10.3958 7.95648 9.96486 7.68406 9.48011L7.62953 9.3724C7.57508 9.3185 7.57508 9.26469 7.52055 9.15697C7.52055 9.04926 7.52055 8.94155 7.57508 8.88765C7.57508 8.88765 7.79305 8.61833 7.95648 8.4568C8.06555 8.34901 8.12 8.18748 8.22898 8.07976C8.33797 7.91815 8.3925 7.70273 8.33797 7.54112C8.28352 7.2718 7.62953 5.81755 7.46609 5.49441C7.35703 5.3328 7.24812 5.27898 7.08461 5.22509L6.48516 5.22509C6.37609 5.22509 6.26719 5.27898 6.15812 5.27898L6.10359 5.3328C5.99461 5.3867 5.88562 5.49441 5.77664 5.54823C5.66766 5.65602 5.61313 5.76365 5.50414 5.87145C5.12266 6.35619 4.90469 6.94866 4.90469 7.54112C4.90469 7.97197 5.01367 8.4029 5.17719 8.77994L5.23172 8.94155C5.72219 9.96486 6.37609 10.8805 7.24813 11.6884L7.46609 11.9039C7.62953 12.0655 7.79305 12.1732 7.90203 12.3347C9.04648 13.3043 10.3544 14.0045 11.8258 14.3815C11.9893 14.4353 12.2073 14.4353 12.3708 14.4892L12.9157 14.4892C13.1882 14.4892 13.5152 14.3815 13.7332 14.2738C13.8966 14.1661 14.0056 14.1661 14.1146 14.0584L14.2237 13.9506C14.3327 13.8429 14.4416 13.789 14.5506 13.6813C14.6596 13.5736 14.7686 13.4659 14.8231 13.3581C14.9321 13.1427 14.9866 12.8734 15.0411 12.6041L15.0411 12.2271C15.0411 12.2271 14.9866 12.1732 14.8776 12.1194Z" fill="white"/>
</g>
<defs>
<clipPath id="clip0_256_53">
<rect width="20" height="20" fill="white" transform="translate(0 20) rotate(-90)"/>
</clipPath>
</defs>
</svg>

<svg width="20" height="20" fill="none" xmlns="http://www.w3.org/2000/svg"><g clip-path="url(#clip0_256_53)"><path d="M5.286 17.128l.327.162c1.362.808 2.888 1.185 4.414 1.185 4.796 0 8.72-3.878 8.72-8.618 0-2.262-.927-4.47-2.562-6.086a8.708 8.708 0 00-6.158-2.532c-4.796 0-8.72 3.878-8.665 8.672 0 1.616.49 3.178 1.308 4.524l.218.323-.872 3.178 3.27-.808z" fill="#1A5AA5"/><path d="M17.112 2.909C15.259 1.024 12.698 0 10.082 0 4.523 0 .055 4.47.109 9.91c0 1.724.49 3.394 1.308 4.902L0 19.93l5.286-1.346c1.472.808 3.106 1.184 4.741 1.184 5.505 0 9.973-4.47 9.973-9.91a9.717 9.717 0 00-2.888-6.948zm-7.03 15.189c-1.472 0-2.943-.377-4.196-1.131l-.327-.162-3.161.808.817-3.07-.218-.323C.6 10.396 1.744 5.333 5.667 2.963c3.924-2.37 8.993-1.239 11.39 2.639 2.398 3.878 1.254 8.887-2.67 11.257-1.253.808-2.78 1.239-4.305 1.239zm4.796-5.979l-.6-.269s-.872-.377-1.417-.646c-.054 0-.109-.054-.163-.054a.794.794 0 00-.382.108s-.054.053-.817.915a.3.3 0 01-.273.162h-.054a.416.416 0 01-.218-.108l-.273-.108c-.6-.269-1.144-.592-1.58-1.023-.11-.108-.273-.216-.382-.323-.381-.377-.763-.808-1.035-1.293l-.054-.108c-.055-.053-.055-.107-.11-.215 0-.108 0-.215.055-.27 0 0 .218-.269.381-.43.11-.108.164-.27.273-.377.109-.162.164-.377.109-.539-.054-.27-.708-1.723-.872-2.047-.109-.161-.218-.215-.381-.269h-.6c-.109 0-.218.054-.327.054l-.054.054c-.11.054-.218.161-.327.215-.11.108-.164.216-.273.323a2.727 2.727 0 00-.6 1.67c0 .431.11.862.273 1.239l.055.162a8.977 8.977 0 002.016 2.746l.218.216c.164.162.327.27.436.43a9.775 9.775 0 003.924 2.048c.163.053.381.053.545.107h.545c.272 0 .6-.107.817-.215.164-.108.273-.108.382-.216l.109-.107c.109-.108.218-.162.327-.27.109-.107.218-.215.272-.323.11-.215.164-.485.218-.754v-.377s-.054-.054-.163-.108z" fill="#fff"/></g><defs><clipPath id="clip0_256_53"><path fill="#fff" transform="rotate(-90 10 10)" d="M0 0h20v20H0z"/></clipPath></defs></svg>
